usr/share/icons/biglinux-icons-material/scalable/apps/com.github.louis77.tuner.svg

<svg width="24" height="24" viewBox="0 0 24 24" fill="none" xmlns="http://www.w3.org/2000/svg">
<path fill-rule="evenodd" clip-rule="evenodd" d="M9.59604 1.11359C9.71588 1.11486 9.83043 1.0996 9.93969 1.06779C11.3755 0.973736 12.8111 0.977551 14.2467 1.07924C15.5484 1.18066 16.8085 1.46308 18.0269 1.9265C20.0525 2.76044 21.4386 4.20689 22.185 6.26585C22.6119 7.50549 22.8639 8.78021 22.9411 10.09C23.0478 11.7347 23.0096 13.3758 22.8265 15.0133C22.6895 16.1642 22.3916 17.271 21.933 18.3336C21.0824 20.1761 19.704 21.447 17.7978 22.1463C16.2531 22.6682 14.6647 22.943 13.0325 22.9706C11.1966 23.0661 9.37913 22.9287 7.57997 22.5585C4.26839 21.8208 2.22559 19.8018 1.45158 16.5017C1.12311 15.0161 0.974199 13.5124 1.00483 11.9906C0.968176 10.3724 1.14 8.77709 1.52031 7.20471C2.33171 4.11908 4.2905 2.20701 7.39669 1.46852C8.12048 1.29157 8.8536 1.17326 9.59604 1.11359Z" fill="url(#paint0_radial_3_325)"/>
<path d="M19.5251 10.5417H4.4565C3.87 10.5417 3.375 10.0167 3.375 9.35029V6.48304C3.375 5.83692 3.85125 5.29167 4.4565 5.29167H19.5435C20.13 5.29167 20.625 5.81667 20.625 6.48304V9.37054C20.6066 10.0167 20.13 10.5417 19.5251 10.5417Z" fill="#F9F9F9"/>
<path d="M4.51312 6.33304V9.43767M5.79112 6.88092V8.88979M6.88687 6.88092V8.88979M8.16525 6.33304V9.43767M9.44363 6.88092V8.88979M10.7216 6.88092V8.88979M12 6.33304V9.43767M13.2784 6.88092V8.88979M14.5564 6.88092V8.88979M15.8348 6.33304V9.43767M19.4869 6.33304V9.43767M17.1131 6.88092V8.88979M18.2089 6.88092V8.88979" stroke="#ABACAE" stroke-width="0.32625" stroke-miterlimit="10"/>
<path d="M10.1737 5.60292V10.3504" stroke="#DE3E80" stroke-width="0.400125" stroke-miterlimit="10"/>
<path d="M12 18.0417C13.6569 18.0417 15 16.6985 15 15.0417C15 13.3848 13.6569 12.0417 12 12.0417C10.3431 12.0417 9 13.3848 9 15.0417C9 16.6985 10.3431 18.0417 12 18.0417Z" fill="#F2F2F2"/>
<path opacity="0.15" d="M12.375 12.7917C12.375 12.5846 12.2071 12.4167 12 12.4167C11.7929 12.4167 11.625 12.5846 11.625 12.7917V13.9167C11.625 14.1238 11.7929 14.2917 12 14.2917C12.2071 14.2917 12.375 14.1238 12.375 13.9167V12.7917Z" fill="black"/>
<path d="M7.125 12.7917H3.375C3.16789 12.7917 3 12.9596 3 13.1667C3 13.3738 3.16789 13.5417 3.375 13.5417H7.125C7.33211 13.5417 7.5 13.3738 7.5 13.1667C7.5 12.9596 7.33211 12.7917 7.125 12.7917Z" fill="#1A1A1A"/>
<path d="M7.125 16.5417H3.375C3.16789 16.5417 3 16.7096 3 16.9167C3 17.1238 3.16789 17.2917 3.375 17.2917H7.125C7.33211 17.2917 7.5 17.1238 7.5 16.9167C7.5 16.7096 7.33211 16.5417 7.125 16.5417Z" fill="#1A1A1A"/>
<path d="M6.375 14.6667H3.375C3.16789 14.6667 3 14.8346 3 15.0417C3 15.2488 3.16789 15.4167 3.375 15.4167H6.375C6.58211 15.4167 6.75 15.2488 6.75 15.0417C6.75 14.8346 6.58211 14.6667 6.375 14.6667Z" fill="#1A1A1A"/>
<path d="M16.875 12.7917H20.625C20.8321 12.7917 21 12.9596 21 13.1667C21 13.3738 20.8321 13.5417 20.625 13.5417H16.875C16.6679 13.5417 16.5 13.3738 16.5 13.1667C16.5 12.9596 16.6679 12.7917 16.875 12.7917Z" fill="#1A1A1A"/>
<path d="M16.875 16.5417H20.625C20.8321 16.5417 21 16.7096 21 16.9167C21 17.1238 20.8321 17.2917 20.625 17.2917H16.875C16.6679 17.2917 16.5 17.1238 16.5 16.9167C16.5 16.7096 16.6679 16.5417 16.875 16.5417Z" fill="#1A1A1A"/>
<path d="M17.625 14.6667H20.625C20.8321 14.6667 21 14.8346 21 15.0417C21 15.2488 20.8321 15.4167 20.625 15.4167H17.625C17.4179 15.4167 17.25 15.2488 17.25 15.0417C17.25 14.8346 17.4179 14.6667 17.625 14.6667Z" fill="#1A1A1A"/>
<defs>
<radialGradient id="paint0_radial_3_325" cx="0" cy="0" r="1" gradientUnits="userSpaceOnUse" gradientTransform="translate(12 1) rotate(90) scale(22)">
<stop stop-color="#DD3F80"/>
<stop offset="1" stop-color="#AA0042"/>
</radialGradient>
</defs>
</svg>

<svg xmlns="http://www.w3.org/2000/svg" width="24" height="24" fill="none"><path fill="url(#a)" fill-rule="evenodd" d="M9.596 1.114c.12 0 .234-.014.344-.046a31.627 31.627 0 0 1 4.307.011c1.301.102 2.561.384 3.78.848 2.025.833 3.412 2.28 4.158 4.339.427 1.24.679 2.514.756 3.824a27.94 27.94 0 0 1-.114 4.923 11.88 11.88 0 0 1-.894 3.32c-.85 1.843-2.229 3.114-4.135 3.813a15.624 15.624 0 0 1-4.765.825 21.423 21.423 0 0 1-5.453-.413c-3.312-.737-5.354-2.756-6.128-6.056a19.047 19.047 0 0 1-.447-4.511 18.491 18.491 0 0 1 .515-4.786c.812-3.086 2.77-4.998 5.877-5.736a13.953 13.953 0 0 1 2.199-.355Z" clip-rule="evenodd"/><path fill="#F9F9F9" d="M19.525 10.542H4.457c-.587 0-1.082-.525-1.082-1.192V6.483c0-.646.476-1.191 1.082-1.191h15.087c.586 0 1.081.525 1.081 1.191v2.888c-.018.646-.495 1.17-1.1 1.17Z"/><path stroke="#ABACAE" stroke-miterlimit="10" stroke-width=".326" d="M4.513 6.333v3.105M5.791 6.88V8.89m1.096-2.01v2.01m1.278-2.557v3.105M9.444 6.88V8.89m1.278-2.01v2.01M12 6.333v3.105m1.278-2.557V8.89m1.278-2.01v2.01m1.279-2.557v3.105m3.652-3.105v3.105M17.113 6.88V8.89m1.096-2.01v2.01"/><path stroke="#DE3E80" stroke-miterlimit="10" stroke-width=".4" d="M10.174 5.603v4.747"/><path fill="#F2F2F2" d="M12 18.042a3 3 0 1 0 0-6 3 3 0 0 0 0 6Z"/><path fill="#000" d="M12.375 12.792a.375.375 0 0 0-.75 0v1.125a.375.375 0 0 0 .75 0v-1.125Z" opacity=".15"/><path fill="#1A1A1A" d="M7.125 12.792h-3.75a.375.375 0 0 0 0 .75h3.75a.375.375 0 0 0 0-.75ZM7.125 16.542h-3.75a.375.375 0 0 0 0 .75h3.75a.375.375 0 0 0 0-.75ZM6.375 14.667h-3a.375.375 0 0 0 0 .75h3a.375.375 0 0 0 0-.75ZM16.875 12.792h3.75a.375.375 0 0 1 0 .75h-3.75a.375.375 0 0 1 0-.75ZM16.875 16.542h3.75a.375.375 0 0 1 0 .75h-3.75a.375.375 0 0 1 0-.75ZM17.625 14.667h3a.375.375 0 0 1 0 .75h-3a.375.375 0 0 1 0-.75Z"/><defs><radialGradient id="a" cx="0" cy="0" r="1" gradientTransform="matrix(0 22 -22 0 12 1)" gradientUnits="userSpaceOnUse"><stop stop-color="#DD3F80"/><stop offset="1" stop-color="#AA0042"/></radialGradient></defs></svg>
